lib/flags/m/HKG.svg

<svg xmlns="http://www.w3.org/2000/svg" fill="none" viewBox="0 0 20 15"><mask id="HKG_svg__a" width="20" height="15" x="0" y="0" mask-type="alpha" maskUnits="userSpaceOnUse"><path fill="#fff" d="M0 0H20V15H0z"/></mask><g mask="url(#HKG_svg__a)"><path fill="#EA1A1A" fill-rule="evenodd" d="M0 0V15H20V0H0Z" clip-rule="evenodd"/><mask id="HKG_svg__b" width="20" height="15" x="0" y="0" mask-type="alpha" maskUnits="userSpaceOnUse"><path fill="#fff" fill-rule="evenodd" d="M0 0V15H20V0H0Z" clip-rule="evenodd"/></mask><g mask="url(#HKG_svg__b)"><g filter="url(#HKG_svg__c)"><path fill="#fff" fill-rule="evenodd" d="M9.91845 7.23423C9.91845 7.23423 6.2999 4.00719 10.6179 2.12695C10.6179 2.12695 11.8737 3.51234 10.9316 5.06763C10.6226 5.57773 10.3619 5.94199 10.166 6.21573C9.76464 6.77656 9.63519 6.95745 9.91845 7.23423ZM4.57797 4.91719C4.32945 9.62022 8.83379 7.82629 8.83379 7.82629C8.45974 7.95585 8.3558 7.7592 8.03367 7.1497C7.87637 6.85208 7.66704 6.45602 7.34883 5.95144C6.37887 4.41334 4.57797 4.91719 4.57797 4.91719ZM11.3988 7.39191C11.3988 7.39191 16.0438 8.78248 12.9288 12.3148C12.9288 12.3148 11.2042 11.5915 11.3988 9.78375C11.4627 9.19098 11.5445 8.75071 11.606 8.4198L11.606 8.41979L11.606 8.41979C11.732 7.74154 11.7726 7.52271 11.3988 7.39191ZM10.178 8.47606C10.178 8.47606 11.0107 13.2525 6.45855 12.0454C6.45855 12.0454 6.33462 10.1796 8.03867 9.54552C8.59765 9.33749 9.02812 9.21376 9.35162 9.12078C10.0144 8.93028 10.2281 8.86884 10.178 8.47606ZM15.9242 6.42207C13.077 2.6707 10.7961 6.94905 10.7961 6.94905C10.9982 6.60853 11.2045 6.69156 11.8439 6.94889C12.1563 7.07458 12.5719 7.24186 13.1409 7.42167C14.8746 7.9696 15.9242 6.42207 15.9242 6.42207Z" clip-rule="evenodd"/></g><path stroke="#EA1A1A" stroke-width=".625" d="M6.35077 6.38C6.35077 6.38 7.26065 7.81198 8.75071 7.81198M9.91266 4.40637C9.91266 4.40637 9.09611 5.91277 9.79565 7.22841M13.8187 6.10095C13.8187 6.10095 11.9124 5.81195 10.9153 6.91928M12.7052 9.59058C12.7052 9.59058 12.3248 7.70033 10.9432 7.14215M8.70825 10.6167C8.70825 10.6167 10.3544 9.6127 10.4064 8.12355"/></g></g><defs><filter id="HKG_svg__c" width="13.356" height="12.188" x="3.568" y="1.127" color-interpolation-filters="sRGB" filterUnits="userSpaceOnUse"><feFlood flood-opacity="0" result="BackgroundImageFix"/><feColorMatrix in="SourceAlpha" values="0 0 0 0 0 0 0 0 0 0 0 0 0 0 0 0 0 0 127 0"/><feOffset/><feGaussianBlur stdDeviation=".5"/><feColorMatrix values="0 0 0 0 0.6 0 0 0 0 0 0 0 0 0 0 0 0 0 0.36 0"/><feBlend in2="BackgroundImageFix" result="effect1_dropShadow"/><feBlend in="SourceGraphic" in2="effect1_dropShadow" result="shape"/></filter></defs></svg>

<svg xmlns="http://www.w3.org/2000/svg" fill="none" viewBox="0 0 20 15"><mask id="HKG_svg__a" width="20" height="15" x="0" y="0" maskUnits="userSpaceOnUse"><path fill="#fff" d="M0 0h20v15H0z"/></mask><g mask="url(#HKG_svg__a)"><path fill="#EA1A1A" fill-rule="evenodd" d="M0 0v15h20V0H0z" clip-rule="evenodd"/><mask id="HKG_svg__b" width="20" height="15" x="0" y="0" maskUnits="userSpaceOnUse"><path fill="#fff" fill-rule="evenodd" d="M0 0v15h20V0H0z" clip-rule="evenodd"/></mask><g mask="url(#HKG_svg__b)"><g filter="url(#HKG_svg__c)"><path fill="#fff" fill-rule="evenodd" d="M9.918 7.234s-3.618-3.227.7-5.107c0 0 1.256 1.385.314 2.94-.31.51-.57.875-.766 1.149-.401.56-.53.741-.248 1.018zm-5.34-2.317c-.249 4.703 4.256 2.91 4.256 2.91-.374.129-.478-.068-.8-.677a16.823 16.823 0 00-.685-1.199c-.97-1.538-2.771-1.034-2.771-1.034zm6.82 2.475s4.646 1.39 1.53 4.923c0 0-1.724-.723-1.53-2.531.065-.593.146-1.033.208-1.364.126-.678.167-.897-.207-1.028zm-1.22 1.084s.833 4.776-3.72 3.57c0 0-.123-1.866 1.58-2.5.56-.209.99-.332 1.314-.425.662-.19.876-.252.826-.645zm5.746-2.054c-2.847-3.751-5.128.527-5.128.527.202-.34.409-.257 1.048 0 .312.126.728.293 1.297.473 1.734.548 2.783-1 2.783-1z" clip-rule="evenodd"/></g><path stroke="#EA1A1A" stroke-width=".625" d="M6.35 6.38s.91 1.432 2.4 1.432m1.163-3.406s-.817 1.507-.117 2.822m4.023-1.127s-1.907-.289-2.904.818m1.79 2.671s-.38-1.89-1.762-2.448m-2.235 3.475s1.646-1.004 1.698-2.494"/></g></g><defs><filter id="HKG_svg__c" width="13.356" height="12.188" x="3.568" y="1.127" color-interpolation-filters="sRGB" filterUnits="userSpaceOnUse"><feFlood flood-opacity="0" result="BackgroundImageFix"/><feColorMatrix in="SourceAlpha" values="0 0 0 0 0 0 0 0 0 0 0 0 0 0 0 0 0 0 127 0"/><feOffset/><feGaussianBlur stdDeviation=".5"/><feColorMatrix values="0 0 0 0 0.6 0 0 0 0 0 0 0 0 0 0 0 0 0 0.36 0"/><feBlend in2="BackgroundImageFix" result="effect1_dropShadow"/><feBlend in="SourceGraphic" in2="effect1_dropShadow" result="shape"/></filter></defs></svg>
